X:156
T:The Cambridge Waltz
C:Thompson, 1816
L:1/8
M:3/4
R:Waltz
%%MIDI beat 100 95 80
S:Colin Hume's website,  colinhume.com  - chords can also be printed below the stave.
N:Originally in E flat and 3/8
N:For the original triple minor dance play (AABBCC) x n.
N:For the dance "The President's Farewell" by Hugh Stewart play (AABC) x 5.
Q:1/4=120
K:D
P:A
V:1
%%MIDI control 10 0     % Left speaker
%%MIDI program 71       % Clarinet
%%MIDI chordprog 45     % Pizzicato Strings
%%MIDI bassprog 45      % Pizzicato Strings
|: A2 | "D"d2d2d2 | "A7"dc ec A2 | "D"f<a d<f f<a | "A7"e<g d<f c<e |\
"D"d2d2d2 | "A7"dc ec A2 | "D"f<a d<f "A7"c<e | "D"d4 :|
V:2
%%MIDI control 10 127   % Right speaker
%%MIDI program 74       % Recorder
|: A2 | F2 A2 F2 | E2 G2 E2 | D2 F2 A2 | A,4 AG |\
F2 A2 F2 | E2 G2 E2 | D2 F2 A2 | D2 F2 :|
P:B
V:1
[| ba | "E7"^gb eg bg | "A"ac ec ba | "E7"^gb eg bg | "A"a3 f ge |\
"D"d2d2d2 | "A7"dc ec A2 | "D"f<a d<f "A7"c<e | "D"d4 |]
V:2
[| D2 | E^G B2 ED | CA, CE ^GF | E^G B2 ED | CE AC E=G |\
F2 A2 F2 | E2 G2 E2 | D2 F2 A2 | D2 F2 |]
P:C
V:1
[| A2 | "D"A6 | "A7"G4 G2 | "D"F2G2A2 | "G"B2c2d2 |\
"Em"G6 | "D"F4 F2 | "A7"E2c2e2 | "D"d4 |]
V:2
[| D2 | DE FE DF | ED CD EC | DC ED FE | DG AG BG |\
ED CD EC | DC B,C DB, | CD EF GA | F4 |]

